X: 28802
T: My Mind Will Never Be Easy
R: slip jig
M: 9/8
K: Edorian
gf|:edB BAB G2A|B2d deB dgf|edB BAB G2A|1 B2e efd egf:|2 B2e efd e2e||
|:def ~g3 fed|B2d deB d2B|deg age dBA|1 B2e efd e2e:|2 B2e efd e||
"variation"
gf|e2B BAB G2A|B2d deB dgf|e2B BAB G2A|B2e efd egf|
e2B BAB G2A|B2d deB d2B|def gdB G2A|B2e efd e2e|
|:def gaf g2d|B2d deB d2B|deg age dBA|1 B2e efd e2e:|2 B2e efd e||

